Flat-Remix-Dark/apps/scalable/lastfm.svg

<svg xmlns="http://www.w3.org/2000/svg" width="384pt" height="384pt" version="1.1" viewBox="0 0 384 384">
 <g transform="translate(1.09375,0.205079)">
  <path style="fill:#ca2828;fill-rule:evenodd" d="m 369.72656,191.79687 c 0,98.76172 -80.0664,178.81641 -178.82031,178.81641 -98.761719,0 -178.820312,-80.0625 -178.820312,-178.81641 0,-98.76562 80.066406,-178.820308 178.820312,-178.820308 98.76172,0 178.82031,80.066407 178.82031,178.820308"/>
  <path style="fill:#ffffff" d="m 144.98828,121.63281 c -25.10937,0.56641 -49.804686,14.625 -62.007811,39.79688 -17.964844,37.07031 -3.058594,81.0625 33.417971,98.5664 5.58984,2.6875 14.00781,5.42969 18.71093,6.07813 16.75,2.30859 32.36719,-0.85547 45.97266,-9.29297 8.95313,-5.54688 18.71484,-14.53906 18.71484,-17.22656 0,-0.91407 -1.93359,-6.09375 -4.3164,-11.51172 l -4.33985,-9.85156 -2.19531,3.57421 c -4.21484,6.89454 -14.55859,16.13282 -22.26172,19.85938 -6.67968,3.23437 -9.60937,3.75391 -20.92968,3.75391 -11.75391,0 -14.07422,-0.44922 -21.44532,-4.1875 -10.22656,-5.17969 -19.48828,-14.80079 -24.19921,-25.14454 -3.10938,-6.82421 -3.574224,-9.77343 -3.574224,-22.1875 0,-12.98437 0.371094,-15.08203 4.058594,-22.58984 4.5,-9.17187 14.08984,-19.22656 22.56641,-23.69141 8.78515,-4.625 22.22656,-6.51562 31.83203,-4.46875 19.03125,4.0586 30.47265,14.375 39.36718,35.51172 21.45313,50.98438 28.15235,64.95313 34.74219,72.40235 9.8125,11.08593 17.69531,14.29297 35.17578,14.32031 12.29688,0.0195 14.80469,-0.43359 22.33985,-4.00781 16.54687,-7.85157 24.82422,-21.14063 24.63672,-39.57032 -0.21875,-21.37109 -9.10157,-30.55859 -39.36719,-40.76562 -21.92188,-7.39453 -26.34375,-11.07422 -26.34375,-21.85547 0,-10.80469 6.91797,-17.51172 18.04687,-17.51172 6.4336,0 10.09766,1.60156 15.49219,6.79297 2.65625,2.55078 4.63281,3.34766 6.92188,2.73047 4.36718,-1.17578 12.22656,-6.29688 12.22656,-7.96484 0,-3.44922 -13.56641,-15.5 -20.01563,-17.76953 -15.21484,-5.35157 -32.43359,-1.7461 -42.40234,8.85937 -6.92188,7.37109 -9.65625,14.60547 -9.64844,25.39844 0.0234,20.125 10.00781,30.23437 40.8711,41.30468 20.26562,7.27344 24.25,10.91407 24.25,22.1875 0,13.3711 -11.03125,22.92188 -26.52344,22.92188 -9.46875,0 -14.38281,-1.72656 -19.67969,-6.89453 -4.97266,-4.84766 -7.82031,-10.65235 -23.12891,-47.09766 -14.63281,-34.84375 -18.98437,-42.73047 -28.72265,-51.94531 -13.6875,-12.97266 -31.06641,-18.89453 -48.2461,-18.50781"/>
 </g>
 <path style="fill-rule:evenodd;opacity:0.3" d="M 17.634766 251.00195 C 17.600527 252.66543 17.572266 254.33027 17.572266 256.00195 C 17.572266 387.67383 124.31773 494.42383 256 494.42383 C 387.67187 494.42383 494.42773 387.68425 494.42773 256.00195 C 494.42773 254.32993 494.39754 252.66578 494.36328 251.00195 C 491.70032 380.37438 386.00037 484.42383 256 484.42383 C 125.98935 484.42383 20.297459 380.36462 17.634766 251.00195 z" transform="scale(0.75)"/>
 <path style="fill:#ffffff;fill-rule:evenodd;opacity:0.3" d="M 256 17.576172 C 124.32812 17.576172 17.572266 124.31446 17.572266 256.00195 C 17.572266 257.67344 17.60053 259.33866 17.634766 261.00195 C 20.297715 131.62454 125.99962 27.576172 256 27.576172 C 386.01013 27.576172 491.69975 131.63994 494.36328 261.00195 C 494.39752 259.33853 494.42773 257.67358 494.42773 256.00195 C 494.42773 124.3301 387.68229 17.576172 256 17.576172 z" transform="scale(0.75)"/>
</svg>

<svg xmlns="http://www.w3.org/2000/svg" width="384pt" height="384pt" version="1.1" viewBox="0 0 384 384"> <g> <path style="fill-rule:evenodd;fill:rgb(79.215%,16.470%,16.470%)" d="M 369.726562 191.796875 C 369.726562 290.558594 289.660156 370.613281 190.90625 370.613281 C 92.144531 370.613281 12.085938 290.550781 12.085938 191.796875 C 12.085938 93.03125 92.152344 12.976562 190.90625 12.976562 C 289.667969 12.976562 369.726562 93.042969 369.726562 191.796875"/> <path style="fill:rgb(100.000%,100.000%,100.000%)" d="M 144.988281 121.632812 C 119.878906 122.199219 95.183594 136.257812 82.980469 161.429688 C 65.015625 198.5 79.921875 242.492188 116.398438 259.996094 C 121.988281 262.683594 130.40625 265.425781 135.109375 266.074219 C 151.859375 268.382812 167.476562 265.21875 181.082031 256.78125 C 190.035156 251.234375 199.796875 242.242188 199.796875 239.554688 C 199.796875 238.640625 197.863281 233.460938 195.480469 228.042969 L 191.140625 218.191406 L 188.945312 221.765625 C 184.730469 228.660156 174.386719 237.898438 166.683594 241.625 C 160.003906 244.859375 157.074219 245.378906 145.753906 245.378906 C 134 245.378906 131.679688 244.929688 124.308594 241.191406 C 114.082031 236.011719 104.820312 226.390625 100.109375 216.046875 C 97 209.222656 96.535156 206.273438 96.535156 193.859375 C 96.535156 180.875 96.90625 178.777344 100.59375 171.269531 C 105.09375 162.097656 114.683594 152.042969 123.160156 147.578125 C 131.945312 142.953125 145.386719 141.0625 154.992188 143.109375 C 174.023438 147.167969 185.464844 157.484375 194.359375 178.621094 C 215.8125 229.605469 222.511719 243.574219 229.101562 251.023438 C 238.914062 262.109375 246.796875 265.316406 264.277344 265.34375 C 276.574219 265.363281 279.082031 264.910156 286.617188 261.335938 C 303.164062 253.484375 311.441406 240.195312 311.253906 221.765625 C 311.035156 200.394531 302.152344 191.207031 271.886719 181 C 249.964844 173.605469 245.542969 169.925781 245.542969 159.144531 C 245.542969 148.339844 252.460938 141.632812 263.589844 141.632812 C 270.023438 141.632812 273.6875 143.234375 279.082031 148.425781 C 281.738281 150.976562 283.714844 151.773438 286.003906 151.15625 C 290.371094 149.980469 298.230469 144.859375 298.230469 143.191406 C 298.230469 139.742188 284.664062 127.691406 278.214844 125.421875 C 263 120.070312 245.78125 123.675781 235.8125 134.28125 C 228.890625 141.652344 226.15625 148.886719 226.164062 159.679688 C 226.1875 179.804688 236.171875 189.914062 267.035156 200.984375 C 287.300781 208.257812 291.285156 211.898438 291.285156 223.171875 C 291.285156 236.542969 280.253906 246.09375 264.761719 246.09375 C 255.292969 246.09375 250.378906 244.367188 245.082031 239.199219 C 240.109375 234.351562 237.261719 228.546875 221.953125 192.101562 C 207.320312 157.257812 202.96875 149.371094 193.230469 140.15625 C 179.542969 127.183594 162.164062 121.261719 144.984375 121.648438"/> </g> </svg>
